src/baseIcons/icon-transport-bicycle.svg

<?xml version="1.0" encoding="UTF-8"?>
<svg  viewBox="0 0 38 38" version="1.1" xmlns="http://www.w3.org/2000/svg" xmlns:xlink="http://www.w3.org/1999/xlink">
    <title>Icons/Basic icons/transport-bicycle</title>
    <g  id="Icons/Basic-icons/transport-bicycle" stroke="none" stroke-width="1" fill="none" fill-rule="evenodd">
        <path d="M19,0 C29.493,0 38,8.507 38,19 C38,29.493 29.493,38 19,38 C8.507,38 0,29.493 0,19 C0,8.507 8.507,0 19,0 Z M19,2 C9.626,2 2,9.626 2,19 C2,28.374 9.626,36 19,36 C28.374,36 36,28.374 36,19 C36,9.626 28.374,2 19,2 Z M26,18.5 C28.757,18.5 31,20.743 31,23.5 C31,26.257 28.757,28.5 26,28.5 C23.243,28.5 21,26.257 21,23.5 C21,20.743 23.243,18.5 26,18.5 Z M12,18.5 C14.757,18.5 17,20.743 17,23.5 C17,26.257 14.757,28.5 12,28.5 C9.243,28.5 7,26.257 7,23.5 C7,20.743 9.243,18.5 12,18.5 Z M26,20.5 C24.346,20.5 23,21.846 23,23.5 C23,25.154 24.346,26.5 26,26.5 C27.654,26.5 29,25.154 29,23.5 C29,21.846 27.654,20.5 26,20.5 Z M12,20.5 C10.346,20.5 9,21.846 9,23.5 C9,25.154 10.346,26.5 12,26.5 C13.654,26.5 15,25.154 15,23.5 C15,21.846 13.654,20.5 12,20.5 Z M20.3748,10.7195 C20.8078,10.3745 21.4358,10.4445 21.7808,10.8755 L21.7808,10.8755 L25.4808,15.4995 L25.9998,15.4995 C26.5528,15.4995 26.9998,15.9475 26.9998,16.4995 C26.9998,17.0525 26.5528,17.4995 25.9998,17.4995 L25.9998,17.4995 L24.9998,17.4995 C24.6968,17.4995 24.4088,17.3615 24.2188,17.1245 L24.2188,17.1245 L20.8438,12.9055 L17.3818,15.6755 L19.7998,18.8995 C19.9298,19.0735 19.9998,19.2835 19.9998,19.4995 L19.9998,19.4995 L19.9998,24.4995 C19.9998,25.0525 19.5528,25.4995 18.9998,25.4995 C18.4478,25.4995 17.9998,25.0525 17.9998,24.4995 L17.9998,24.4995 L17.9998,19.8335 L15.1998,16.1005 C14.8758,15.6675 14.9528,15.0565 15.3748,14.7195 L15.3748,14.7195 Z M25,7.5 C26.103,7.5 27,8.397 27,9.5 C27,10.603 26.103,11.5 25,11.5 C23.897,11.5 23,10.603 23,9.5 C23,8.397 23.897,7.5 25,7.5 Z"  id="Combined-Shape" fill="#292929"></path>
    </g>
</svg>

<svg xmlns="http://www.w3.org/2000/svg" xmlns:xlink="http://www.w3.org/1999/xlink" viewBox="0 0 38 38"><defs><path d="M26 26.5c-1.654 0-3-1.346-3-3s1.346-3 3-3 3 1.346 3 3-1.346 3-3 3M19 0c10.493 0 19 8.507 19 19s-8.507 19-19 19S0 29.493 0 19 8.507 0 19 0zm0 2C9.626 2 2 9.626 2 19c0 9.374 7.626 17 17 17 9.374 0 17-7.626 17-17 0-9.374-7.626-17-17-17zm7 16.5c2.757 0 5 2.243 5 5s-2.243 5-5 5-5-2.243-5-5 2.243-5 5-5zm-14 0c2.757 0 5 2.243 5 5s-2.243 5-5 5-5-2.243-5-5 2.243-5 5-5zm0 2c-1.654 0-3 1.346-3 3s1.346 3 3 3 3-1.346 3-3-1.346-3-3-3zm8.3748-9.7805c.433-.345 1.061-.275 1.406.156l3.7 4.624h.519c.553 0 1 .448 1 1 0 .553-.447 1-1 1h-1c-.303 0-.591-.138-.781-.375l-3.375-4.219-3.462 2.77 2.418 3.224c.13.174.2.384.2.6v5c0 .553-.447 1-1 1-.552 0-1-.447-1-1v-4.666l-2.8-3.733c-.324-.433-.247-1.044.175-1.381zM25 7.5c1.103 0 2 .897 2 2s-.897 2-2 2-2-.897-2-2 .897-2 2-2z" id="a"/></defs><g fill="none" fill-rule="evenodd"><mask id="b" fill="#fff"><use xlink:href="#a"/></mask><use fill="#292929" xlink:href="#a"/><g mask="url(#b)" fill="#5F686D"><path d="M0 0h38v38H0z"/></g></g></svg>
